src/assets/icons/weeks,simple,18.svg

<svg width="48" height="48" viewBox="0 0 48 48" fill="none" xmlns="http://www.w3.org/2000/svg">
<rect opacity="0.2" x="5" y="5" width="38" height="38" rx="4" fill="black"/>
<path d="M5 13C5 9.22876 5 7.34315 6.17157 6.17157C7.34315 5 9.22876 5 13 5H35C38.7712 5 40.6569 5 41.8284 6.17157C43 7.34315 43 9.22876 43 13V15H5V13Z" fill="black"/>
<path d="M19.2038 20.5455H15.7351L11.4141 23.2812V26.554L15.4112 24.0483H15.5135V38H19.2038V20.5455ZM29.8636 38.2386C33.8011 38.2386 36.6307 36.1335 36.6392 33.304C36.6307 31.1222 34.9517 29.3409 32.8551 28.9915V28.8722C34.679 28.4972 35.983 26.9205 35.9915 25.0028C35.983 22.3011 33.392 20.3068 29.8636 20.3068C26.3267 20.3068 23.7358 22.3011 23.7443 25.0028C23.7358 26.9119 25.0227 28.4972 26.8807 28.8722V28.9915C24.75 29.3409 23.0881 31.1222 23.0966 33.304C23.0881 36.1335 25.9261 38.2386 29.8636 38.2386ZM29.8636 35.5284C28.108 35.5284 26.9318 34.4886 26.9318 33.0142C26.9318 31.5057 28.1676 30.4148 29.8636 30.4148C31.5511 30.4148 32.7955 31.5057 32.7955 33.0142C32.7955 34.4972 31.6108 35.5284 29.8636 35.5284ZM29.8636 27.7301C28.3892 27.7301 27.3409 26.767 27.3409 25.3864C27.3409 24.0227 28.3722 23.0852 29.8636 23.0852C31.3466 23.0852 32.3864 24.0312 32.3864 25.3864C32.3864 26.767 31.3295 27.7301 29.8636 27.7301Z" fill="black"/>
</svg>

<svg xmlns="http://www.w3.org/2000/svg" width="48" height="48" fill="none" viewBox="0 0 48 48">
  <rect width="38" height="38" x="5" y="5" fill="#000" opacity=".2" rx="4"/>
  <path fill="#000" d="M5 13c0-3.771 0-5.657 1.172-6.828C7.343 5 9.229 5 13 5h22c3.771 0 5.657 0 6.828 1.172C43 7.343 43 9.229 43 13v2H5v-2zM19.204 20.546h-3.469l-4.32 2.735v3.273l3.996-2.506h.103V38h3.69V20.546zm10.66 17.693c3.937 0 6.767-2.105 6.775-4.935-.008-2.182-1.687-3.963-3.784-4.313v-.119c1.824-.375 3.128-1.951 3.137-3.87-.009-2.7-2.6-4.695-6.128-4.695-3.537 0-6.128 1.994-6.12 4.696-.008 1.909 1.279 3.494 3.137 3.87v.118c-2.131.35-3.793 2.131-3.784 4.313-.009 2.83 2.83 4.935 6.767 4.935zm0-2.71c-1.756 0-2.932-1.04-2.932-2.515 0-1.508 1.236-2.6 2.932-2.6 1.687 0 2.931 1.092 2.931 2.6 0 1.483-1.184 2.514-2.931 2.514zm0-7.799c-1.475 0-2.523-.963-2.523-2.344 0-1.363 1.031-2.3 2.523-2.3 1.483 0 2.522.945 2.522 2.3 0 1.381-1.057 2.344-2.522 2.344z"/>
</svg>
